X:1
T: Björnvalsen
R: Vals
S: Perjos Lars Halvarsson|utlärd av Perjos Lars Halvarsson
Z: Karin Arén
M: 3/4
L: 1/8
K: Am
|: A2 (Ac) Ac | [Ae]4 d2 | c2 B2 A2 | [Ae]4 d2 | c2 B2 A2 | c2 B2 A2 | A2 AA AA |1 A4 z2 :|2 A4 e2 |:  
[A,D]2 ff ff | Tf2 e2 d2 | d2 c3 d | e4 e2 | [A,D]2 ff ff | Tf2 e2 d2 | d2 c3 d | e4 e2 | 
A2 (Ac) Ac | [Ae]4 d2 | c2 B3 A | [Ae]4 d2 | c2 B2 A2 | ^G2 A2 B2 | A2 AA AA | A4 z2 :|

